!!!OTL: Der verlorene Rosenkranz. / a. Alte Melodie.
!!!ARE: Europa, Mitteleuropa, Deutschland
!!!SCT: A0066A
!!!TXL: @@GMH
!!!YEM: Copyright 1995, estate of Helmut Schaffrath.
**kern	**text
*M3/1	*
*met(3)	*
*clefC3	*
*k[b-]	*
*F:ion	*
=1	=1
!LO:TX:a:t=jon.	!
1ryy	.
1ryy	.
{1F	Gut
=2	=2
1.F	He-
2F	-ni-
1F	-cke
=3	=3
1.G	v-
2G	-ber
1A	die
=4	=4
1.B-	Hey-
2B-	-den
1B-	auß-
=5	=5
0B-}	-reyt,
{1B-	wolt
=6	=6
1.B-	ſchie-
2B-	-ßen
1B-	ein
=7	=7
0A	ho-
1B-	-le
=8	=8
0.c	dau-
=9	=9
0A}	-ben,
{1c	da
=10	=10
0f	ſtrau-
1f	-chelt
=11	=11
0e	jm
1d	ſein
=12	=12
0c	graw-
1c	-es
=13	=13
0A}	pferd,
{1A	wol
=14	=14
1.c	v-
2B-	-ber
1A	ein
=15	=15
0c	ha-
1c	-ſel-
=16	=16
0.d	-ſtau-
=17	=17
0A}	-den,
{1d	ja
=18	=18
1c	ſtau-
1F	.
1G	.
=19	=19
0.F/ll}	-den.
==	==
!!!GTL: Balladen und Romanzen (erzählende Volkslieder)
!!!AGN: Romanze, Ballade, Lied
!! Melodie zusammengefuegt aus zwei Fragmenten: Schmeltzel Quodlibet
!!    No. 19 (vgl A0054 und A0065, diese Angabe kann nicht stimmen!) und
!!    Forster II. No. 60.
!!!ONB: ESAC (Essen Associative Code) Database: ALTDEU
!!!AMT: simple triple
!!!AIN: vox
!!!EED: Helmut Schaffrath
!!!EEV: 1.0
!!!RDF**kern: l = terminal long
!!!AMD: Ionian
!!!URL-scan: https://rosdok.uni-rostock.de/mcrviewer/recordIdentifier/rosdok_ppn738218359/iview2/phys_0224.iview2?x=-2091.770685579196&y=-185.76643025910016&scale=0.2411630558722919&rotation=0&layout=singlePageLayout
!!!ENC: Anna Maria Matuszewska
!!!EEV: 2024/19/02
*-	*-
